X: 18340
T: Humours Of Westport, The
R: reel
M: 4/4
K: Dmajor
FA ~A2 B2 AG|FAAF GBAG|FA ~A2 B2 AF|GBEF GGAG|
FA ~A2 B2 AG|FAAc dBAg|fdec dAFA|GBEF GABc||
~d3 c dAFA|d2 ce dfec|~d3 c dAFA|GBEF GABc|
~d3 c dAFA|d2 ce dfeg|fdec dAFA|GBEF GBAG||

